assets/logo/color-transparent-bg.svg

<?xml version="1.0" encoding="UTF-8"?>
<svg width="512" height="512" fill="none" viewBox="0 0 512 512" xmlns="http://www.w3.org/2000/svg">
 <path d="m381.37 137.14c0.183 0.608 0.031 1.268-0.4 1.733l-30.666 33.13 39.333 66.029 26.447 114.3-62.401 99.662h-194.62l-62.401-99.662 26.447-114.3 38.776-66.029-30.114-33.121c-0.428-0.471-0.574-1.134-0.383-1.741l22.437-71.315c0.456-1.4511 2.401-1.7065 3.217-0.4225l35.618 56.057 127.67 0.447 35.63-58.491c0.804-1.3209 2.793-1.0675 3.24 0.413l22.164 73.31zm-284.7 215.2 62.401 99.662h80.243l-134.67-134.18-7.9712 34.521zm7.9712-34.521 134.67 134.18h16.996v-34.44l-59.53-108.69-73.663-70.838-18.476 79.784zm211.16-8.946-59.488 108.69v34.44h16.997l134.66-134.74-18.332-79.23-73.842 70.838zm-42.491 143.13h80.379l62.401-99.662-8.115-35.075-134.66 134.74zm-16.997-34.44 59.488-108.69h-119.02l59.53 108.69zm-37.166-296-22.364 187.32h119.02l-22.265-187.06-74.389-0.261zm-96.027 116.48 73.663 70.838 22.364-187.32-26.476-0.093-30.775 50.542-38.776 66.029zm192.68 70.838 73.842-70.838-39.333-66.029-29.968-50.095-26.806-0.093 22.265 187.06zm-184.4-171.73c-0.191 0.607-0.045 1.27 0.383 1.741l30.114 33.121 30.775-50.542-35.618-56.057c-0.816-1.284-2.761-1.0286-3.217 0.4225l-22.437 71.315zm188.94-15.233 29.968 50.095 30.666-33.13c0.431-0.465 0.583-1.125 0.4-1.733l-22.164-73.31c-0.447-1.4805-2.436-1.7339-3.24-0.413l-35.63 58.491z" clip-rule="evenodd" fill="#151515" fill-rule="evenodd"/>
 <path d="m273.3 452h80.379l62.401-99.662-8.115-35.075-134.66 134.74z" fill="url(#paint0_linear_366_140)"/>
 <path d="m96.666 352.34 62.401 99.662h80.243l-134.67-134.18-7.9712 34.521z" fill="url(#paint0_linear_366_140)"/>
 <path d="m104.64 317.82 134.67 134.18h16.996v-34.44l-59.53-108.69-73.663-70.838-18.476 79.784z" fill="url(#paint2_linear_366_140)"/>
 <path d="m315.79 308.87-59.488 108.69v34.44h16.997l134.66-134.74-18.332-79.23-73.842 70.838z" fill="url(#paint2_linear_366_140)"/>
 <path d="m123.11 238.03 73.663 70.838 22.364-187.32-26.476-0.093-30.775 50.542-38.776 66.029z" fill="url(#paint4_linear_366_140)"/>
 <path d="m315.79 308.87 73.842-70.838-39.333-66.029-29.968-50.095-26.806-0.093 22.265 187.06z" fill="url(#paint4_linear_366_140)"/>
 <path d="m219.14 121.56-22.364 187.32h119.02l-22.265-187.06-74.389-0.261z" fill="#F77C1C"/>
 <path d="m320.34 121.91 29.968 50.095 30.666-33.13c0.431-0.465 0.583-1.125 0.4-1.733l-22.164-73.31c-0.447-1.4805-2.436-1.7339-3.24-0.413l-35.63 58.491z" fill="#F44E23"/>
 <path d="m131.39 137.14c-0.191 0.607-0.045 1.27 0.383 1.741l30.114 33.121 30.775-50.542-35.618-56.057c-0.816-1.284-2.761-1.0286-3.217 0.4225l-22.437 71.315z" fill="#F44E23"/>
 <path d="m256.31 417.56 59.488-108.69h-119.02l59.53 108.69z" fill="url(#paint6_linear_366_140)"/>
 <path d="m281.96 213.6c2.361 0 3.571 2.829 1.941 4.537l-27.039 28.318c-0.049 0.051-0.1 0.1-0.152 0.146v35.604l31.523 26.665h-66.625l31.524-26.665v-35.604c-0.052-0.046-0.103-0.095-0.152-0.146l-27.04-28.318c-1.63-1.708-0.42-4.537 1.941-4.537h54.079z" fill="#151515"/>
 <defs>
  <linearGradient id="paint0_linear_366_140" x1="256.37" x2="256.37" y1="60" y2="452" gradientUnits="userSpaceOnUse">
   <stop stop-color="#712E87" offset=".1"/>
   <stop stop-color="#852A78" offset=".9"/>
  </linearGradient>
  <linearGradient id="paint2_linear_366_140" x1="256.37" x2="256.37" y1="60" y2="452" gradientUnits="userSpaceOnUse">
   <stop stop-color="#E93F36" offset=".1"/>
   <stop stop-color="#B13470" offset=".9"/>
  </linearGradient>
  <linearGradient id="paint4_linear_366_140" x1="256.37" x2="256.37" y1="60" y2="452" gradientUnits="userSpaceOnUse">
   <stop stop-color="#F77C1C" offset=".15"/>
   <stop stop-color="#F05530" offset=".64904"/>
  </linearGradient>
  <linearGradient id="paint6_linear_366_140" x1="256.37" x2="256.37" y1="60" y2="452" gradientUnits="userSpaceOnUse">
   <stop stop-color="#BD2A50" offset=".30288"/>
   <stop stop-color="#9C2D6F" offset=".70192"/>
  </linearGradient>
 </defs>
</svg>

<svg width="512" height="512" viewBox="0 0 512 512" fill="none" xmlns="http://www.w3.org/2000/svg">
<path fill-rule="evenodd" clip-rule="evenodd" d="M381.369 137.141C381.552 137.749 381.4 138.409 380.969 138.874L350.303 172.004L389.636 238.033L416.083 352.338L353.682 452H159.067L96.6658 352.338L123.113 238.033L161.889 172.004L131.775 138.883C131.347 138.412 131.201 137.749 131.392 137.142L153.829 65.8272C154.285 64.3761 156.23 64.1207 157.046 65.4047L192.664 121.462L320.335 121.909L355.965 63.4183C356.769 62.0974 358.758 62.3508 359.205 63.8313L381.369 137.141ZM96.6658 352.338L159.067 452H239.31L104.637 317.817L96.6658 352.338ZM104.637 317.817L239.31 452H256.306V417.56L196.776 308.871L123.113 238.033L104.637 317.817ZM315.794 308.871L256.306 417.56V452H273.303L407.968 317.263L389.636 238.033L315.794 308.871ZM273.303 452H353.682L416.083 352.338L407.968 317.263L273.303 452ZM256.306 417.56L315.794 308.871H196.776L256.306 417.56ZM219.14 121.555L196.776 308.871H315.794L293.529 121.816L219.14 121.555ZM123.113 238.033L196.776 308.871L219.14 121.555L192.664 121.462L161.889 172.004L123.113 238.033ZM315.794 308.871L389.636 238.033L350.303 172.004L320.335 121.909L293.529 121.816L315.794 308.871ZM131.392 137.142C131.201 137.749 131.347 138.412 131.775 138.883L161.889 172.004L192.664 121.462L157.046 65.4047C156.23 64.1207 154.285 64.3761 153.829 65.8272L131.392 137.142ZM320.335 121.909L350.303 172.004L380.969 138.874C381.4 138.409 381.552 137.749 381.369 137.141L359.205 63.8313C358.758 62.3508 356.769 62.0974 355.965 63.4183L320.335 121.909Z" fill="#151515"/>
<path d="M273.303 452H353.682L416.083 352.338L407.968 317.263L273.303 452Z" fill="url(#paint0_linear_366_140)"/>
<path d="M96.6658 352.338L159.067 452H239.31L104.637 317.817L96.6658 352.338Z" fill="url(#paint1_linear_366_140)"/>
<path d="M104.637 317.817L239.31 452H256.306V417.56L196.776 308.871L123.113 238.033L104.637 317.817Z" fill="url(#paint2_linear_366_140)"/>
<path d="M315.794 308.871L256.306 417.56V452H273.303L407.968 317.263L389.636 238.033L315.794 308.871Z" fill="url(#paint3_linear_366_140)"/>
<path d="M123.113 238.033L196.776 308.871L219.14 121.555L192.664 121.462L161.889 172.004L123.113 238.033Z" fill="url(#paint4_linear_366_140)"/>
<path d="M315.794 308.871L389.636 238.033L350.303 172.004L320.335 121.909L293.529 121.816L315.794 308.871Z" fill="url(#paint5_linear_366_140)"/>
<path d="M219.14 121.555L196.776 308.871H315.794L293.529 121.816L219.14 121.555Z" fill="#F77C1C"/>
<path d="M320.335 121.909L350.303 172.004L380.969 138.874C381.4 138.409 381.552 137.749 381.369 137.141L359.205 63.8313C358.758 62.3508 356.769 62.0974 355.965 63.4183L320.335 121.909Z" fill="#F44E23"/>
<path d="M131.392 137.142C131.201 137.749 131.347 138.412 131.775 138.883L161.889 172.004L192.664 121.462L157.046 65.4047C156.23 64.1207 154.285 64.3761 153.829 65.8272L131.392 137.142Z" fill="#F44E23"/>
<path d="M256.306 417.56L315.794 308.871H196.776L256.306 417.56Z" fill="url(#paint6_linear_366_140)"/>
<path d="M281.961 213.601C284.322 213.601 285.532 216.43 283.902 218.138L256.863 246.456C256.814 246.507 256.763 246.556 256.711 246.602V282.206L288.234 308.871H221.609L253.133 282.206V246.602C253.081 246.556 253.03 246.507 252.981 246.456L225.941 218.138C224.311 216.43 225.521 213.601 227.882 213.601H281.961Z" fill="#151515"/>
<defs>
<linearGradient id="paint0_linear_366_140" x1="256.374" y1="60" x2="256.374" y2="452" gradientUnits="userSpaceOnUse">
<stop offset="0.1" stop-color="#712E87"/>
<stop offset="0.9" stop-color="#852A78"/>
</linearGradient>
<linearGradient id="paint1_linear_366_140" x1="256.374" y1="60" x2="256.374" y2="452" gradientUnits="userSpaceOnUse">
<stop offset="0.1" stop-color="#712E87"/>
<stop offset="0.9" stop-color="#852A78"/>
</linearGradient>
<linearGradient id="paint2_linear_366_140" x1="256.374" y1="60" x2="256.374" y2="452" gradientUnits="userSpaceOnUse">
<stop offset="0.1" stop-color="#E93F36"/>
<stop offset="0.9" stop-color="#B13470"/>
</linearGradient>
<linearGradient id="paint3_linear_366_140" x1="256.374" y1="60" x2="256.374" y2="452" gradientUnits="userSpaceOnUse">
<stop offset="0.1" stop-color="#E93F36"/>
<stop offset="0.9" stop-color="#B13470"/>
</linearGradient>
<linearGradient id="paint4_linear_366_140" x1="256.374" y1="60" x2="256.374" y2="452" gradientUnits="userSpaceOnUse">
<stop offset="0.15" stop-color="#F77C1C"/>
<stop offset="0.649038" stop-color="#F05530"/>
</linearGradient>
<linearGradient id="paint5_linear_366_140" x1="256.374" y1="60" x2="256.374" y2="452" gradientUnits="userSpaceOnUse">
<stop offset="0.15" stop-color="#F77C1C"/>
<stop offset="0.649038" stop-color="#F05530"/>
</linearGradient>
<linearGradient id="paint6_linear_366_140" x1="256.374" y1="60" x2="256.374" y2="452" gradientUnits="userSpaceOnUse">
<stop offset="0.302885" stop-color="#BD2A50"/>
<stop offset="0.701923" stop-color="#9C2D6F"/>
</linearGradient>
</defs>
</svg>
